!!! OTL: Berkowitz313
!!! Chapter: 1
!!! Section: III
!!! Page: 75
!!! Mode: 
!!! Encoder: DJB
**kern
*staff1
*I"Piano
=1-
*clefC3
*k[b-]
*F:
*M4/4
8c\L
8e\
8g\
8b-\J
8a\
4f\
8c\
=2
8d\L
8f\
8b-\
8dd\J
4cc\
4r
=3
8dd\
4b-\
8cc\
8a\L
8f\
8g\
8a\J
=4
8g\L
8f\
8e\
8d\J
2e\
=5
8Bn\L
8d\
8f\
8a\J
8g\
4e\
8c\
=6
8d\L
8f\
8b-\
8dd\J
4cc\
8r
8a\
=7
!!linebreak:original
8b-\
4dd\
8b-\
8.a\L
16b-\Jk
8dd\L
8f\J
=8
8c\L
8e\
8g\
8a\J
4f\
4r
==
*-
